X:1
T:Andante Op.120, No.4
T:Ferdinando Carulli (1770-1841)
%%score { ( 1 2 ) ( 3 4 ) }
L:1/8
Q:1/4=60
M:2/4
K:A
V:1 treble-8 nm="Guitare classique"
V:2 treble-8 
V:3 treble-8 nm="Guitare classique"
V:4 treble-8 
V:1
"_" e/!2!d/ | d/c/B/c/ e/d/c/d/ | fe D/f/g/a/ | a/g/f/e/ e/d/c/d/ | !>!^Bc- ce/d/ | %5
 d/c/B/c/ e/d/c/d/ | !>!fe D/f/g/a/ | a/g/f/e/ e/d/c/B/ | Ac A e/e/ |"_" ^d>a g/f/e/d/ | %10
 e>g f/e/^d/e/ | ^d>a g/f/e/d/ | e/f/g/f/ e/d/c/B/ |"_" d/c/B/c/ e/d/c/d/ | fe D/f/g/a/ | %15
 a/g/f/e/ e/d/c/B/ | A/a/"_dolce"g/f/ ^d/e/B/=d/ | c/a/g/f/ ^d/e/=d/B/ | A/a/g/f/ ^d/e/B/=d/ | %19
 c/a/g/f/ ^d/e/=d/B/ | A2"_" [ca]2 | [ca]2 x!fine! ||[K:C]"_" e/d/ | d/c/B/c/ e/d/^c/d/ | %24
 !>!fe A,/e/f/e/ | E,/d/e/d/ c/e/d/c/ | cB B"_" g/f/ | f/e/!4!d/e/ g/f/e/f/ | %28
 !4!a!4!g x/"_" ^c/c/c/ | !4!d/e/f/d/ c/e/d/B/ | ce c"_" [eg]/[df]/ | %31
!>(! [^ce][ce]!>)![ce][cg] | [df][df][df] [df]/[ce]/ |!>(! [Bd][Bd]!>)![Bd][Bf] | %34
 [ce][ce][ce] [ce]/[Bd]/ |"_" [Ac]/[Ac]/[Ac]/[Ac]/ [Ac]/[Ac]/ [A^d]/[Ad]/ | %36
 [Be]/ e/^d/=d/ c/ c/B/A/ | [Be]/ e/^d/=d/ c/ c/B/A/ | [^GBe]2 x!D.C.! || %39
V:2
 x | A,2 E,2 | A,2 D2 | E,2 E,2 | A,2 A,2 | A,2 E,2 | A,2 D2 | E,2 E,2 | A,2 A, z | B,2 z2 | %10
 E,2 z2 | B,2 z2 | E,2 z2 | A,2 E,2 | A,2 D2 | E,2 E,2 | A,2 E,2 | A,2 E,2 | A,2 E,2 | A,2 E,2 | %20
 A,2 A,2 | A,2 z ||[K:C] x | A,2 E,2 | A,2 A,2 | E,2 A,2 | E,2 E, z | C2 G2 | !1!F!2!E z/ G/G/G/ | %29
 !3!F2 GG | C2 C z | x4 | x4 | x4 | x4 | x4 | ^G/ x/ x x2 | ^G/ x/ x x2 | E,2 !fermata!z || %39
V:3
 c/B/ | B/A/G/A/ c/B/^A/B/ | dc D/d/e/f/ | f/e/d/c/ c/B/^A/B/ | !>!GA- Ac/B/ | B/A/G/A/ c/B/^A/B/ | %6
 dc D/d/e/f/ | f/e/d/c/ c/B/A/G/ | CE C z |"_" A/B/A/B/ A/B/A/B/ | G/B/G/B/ G/B/G/B/ | %11
 A/B/A/B/ A/B/A/B/ | G/A/B/A/ G/E/F/G/ | B/A/G/A/ c/B/^A/B/ | dc D/d/e/f/ | f/e/d/c/ c/B/A/G/ | %16
"_" A/c/E/A/ G/E/G/E/ | A/c/E/A/ E/G/E/G/ | A/c/E/A/ G/E/G/E/ | A/c/E/A/ E/G/E/G/ | [EA]2 [EA]2 | %21
 [EA]2 x ||[K:C] c/B/ | B/A/G/A/ c/B/^A/B/ | dc A,/c/d/c/ | ^G,/B/c/B/ A/c/B/A/ | %26
 A^G G"_" !4!e/d/ | d/c/!4!B/c/ e/!4!d/c/d/ | [Acf][Gce] x/ !4!_B/B/B/ | A/G/A/F/ E/G/!4!F/D/ | %30
 EG E x | z/"_" _B/A/^G/ A/=G/F/E/ | D/F/A/F/ D x | z/ _A/G/^F/ G/=F/E/D/ | C/E/G/E/ C x | %35
"_" A,/^G,/A,/=G,/ F,/F/F,/F/ | E,/[E^G]/[^FA]/[GB]/ [Ac]/C/D/^D/ | %37
 E,/[E^G]/[^FA]/[GB]/ [Ac]/C/D/^D/ | E2 !fermata!z || %39
V:4
 x | A,2 E,2 | A,2 D2 | E2 E,2 | A,2 C2 | A,2 E,2 | A,2 D2 | E2 E2 | C2 C z | FF FF | EE EE | %11
 FF FF | E2 x2 | A,2 E,2 | A,2 D2 | E2 E2 | x4 | x4 | x4 | x4 | C2 C2 | C2 z ||[K:C] x | A,2 E,2 | %24
 A,2 A,2 | ^G,2 A,/C/D/^D/ | E2 E z | C2 G,2 | CC z/ G,/G,/G,/ | F,2 G,G, | C2 C z | x4 | D2 D z | %33
 x4 | C2 C z | A,/^G,/A,/=G,/ F,F, | E,2 A,/C/D/^D/ | E,2 A,/C/D/^D/ | E2 x || %39

